report_00007_2020-12-11T15:55:29.892Z/first-contentful-paint/samples/pages/raw/histogram.svg

<svg width="640" height="490" xmlns="http://www.w3.org/2000/svg" xmlns:xlink="http://www.w3.org/1999/xlink"><path fill="#fff" d="M0 0h640v490H0z"/><defs><path id="d" stroke-width=".222" stroke="currentColor" d="M-1-1h2v2h-2z"/><path id="b" stroke-width=".222" stroke="currentColor" d="M0-1.33l-1.33 2h2.66z"/><path id="f" stroke-width=".222" stroke="currentColor" d="M0 1.33L1.265.411.782-1.067l-1.564-.009-.483 1.487z"/><use xlink:href="#b" id="c" stroke="currentColor" transform="rotate(180)"/><use xlink:href="#d" id="e" stroke="currentColor" transform="rotate(45)"/><circle id="a" stroke-width=".222" stroke="currentColor" cx="0" cy="0" r="1"/></defs><g fill="none" color="#000" stroke="currentColor"><path stroke="#000" d="M53.9 436h9m552.1 0h-9"/><text transform="translate(45.6 439.9)" stroke="none" fill="#000" font-family="Arial" font-size="12" text-anchor="end"><tspan>0</tspan></text></g><g fill="none" color="#000" stroke="currentColor"><path stroke="#000" d="M53.9 352.4h9m552.1 0h-9"/><text transform="translate(45.6 356.3)" stroke="none" fill="#000" font-family="Arial" font-size="12" text-anchor="end"><tspan>20</tspan></text></g><g fill="none" color="#000" stroke="currentColor"><path stroke="#000" d="M53.9 268.8h9m552.1 0h-9"/><text transform="translate(45.6 272.7)" stroke="none" fill="#000" font-family="Arial" font-size="12" text-anchor="end"><tspan>40</tspan></text></g><g fill="none" color="#000" stroke="currentColor"><path stroke="#000" d="M53.9 185.3h9m552.1 0h-9"/><text transform="translate(45.6 189.2)" stroke="none" fill="#000" font-family="Arial" font-size="12" text-anchor="end"><tspan>60</tspan></text></g><g fill="none" color="#000" stroke="currentColor"><path stroke="#000" d="M53.9 101.7h9m552.1 0h-9"/><text transform="translate(45.6 105.6)" stroke="none" fill="#000" font-family="Arial" font-size="12" text-anchor="end"><tspan>80</tspan></text></g><g fill="none" color="#000" stroke="currentColor"><path stroke="#000" d="M53.9 18.1h9m552.1 0h-9"/><text transform="translate(45.6 22)" stroke="none" fill="#000" font-family="Arial" font-size="12" text-anchor="end"><tspan>100</tspan></text></g><g fill="none" color="#000" stroke="currentColor"><path stroke="#000" d="M60 436v-9m0-408.9v9"/><text transform="translate(60 457.9)" stroke="none" fill="#000" font-family="Arial" font-size="12" text-anchor="middle"><tspan>1950</tspan></text></g><g fill="none" color="#000" stroke="currentColor"><path stroke="#000" d="M120.6 436v-9m0-408.9v9"/><text transform="translate(120.6 457.9)" stroke="none" fill="#000" font-family="Arial" font-size="12" text-anchor="middle"><tspan>2000</tspan></text></g><g fill="none" color="#000" stroke="currentColor"><path stroke="#000" d="M181.3 436v-9m0-408.9v9"/><text transform="translate(181.3 457.9)" stroke="none" fill="#000" font-family="Arial" font-size="12" text-anchor="middle"><tspan>2050</tspan></text></g><g fill="none" color="#000" stroke="currentColor"><path stroke="#000" d="M242 436v-9m0-408.9v9"/><text transform="translate(242 457.9)" stroke="none" fill="#000" font-family="Arial" font-size="12" text-anchor="middle"><tspan>2100</tspan></text></g><g fill="none" color="#000" stroke="currentColor"><path stroke="#000" d="M302.7 436v-9m0-408.9v9"/><text transform="translate(302.7 457.9)" stroke="none" fill="#000" font-family="Arial" font-size="12" text-anchor="middle"><tspan>2150</tspan></text></g><g fill="none" color="#000" stroke="currentColor"><path stroke="#000" d="M363.4 436v-9m0-408.9v9"/><text transform="translate(363.4 457.9)" stroke="none" fill="#000" font-family="Arial" font-size="12" text-anchor="middle"><tspan>2200</tspan></text></g><g fill="none" color="#000" stroke="currentColor"><path stroke="#000" d="M424 436v-9m0-408.9v9"/><text transform="translate(424 457.9)" stroke="none" fill="#000" font-family="Arial" font-size="12" text-anchor="middle"><tspan>2250</tspan></text></g><g fill="none" color="#000" stroke="currentColor"><path stroke="#000" d="M484.7 436v-9m0-408.9v9"/><text transform="translate(484.7 457.9)" stroke="none" fill="#000" font-family="Arial" font-size="12" text-anchor="middle"><tspan>2300</tspan></text></g><g fill="none" color="#000" stroke="currentColor"><path stroke="#000" d="M545.4 436v-9m0-408.9v9"/><text transform="translate(545.4 457.9)" stroke="none" fill="#000" font-family="Arial" font-size="12" text-anchor="middle"><tspan>2350</tspan></text></g><g fill="none" color="#000" stroke="currentColor"><path stroke="#000" d="M606.1 436v-9m0-408.9v9"/><text transform="translate(606.1 457.9)" stroke="none" fill="#000" font-family="Arial" font-size="12" text-anchor="middle"><tspan>2400</tspan></text></g><path stroke="#000" d="M53.9 18.1V436H615V18.1H53.9z" fill="none" color="#000"/><text transform="translate(175.7 475.9)" stroke="none" fill="#000" font-family="Arial" font-size="12" text-anchor="end" color="#000"><tspan>raw</tspan></text><g stroke="none" shape-rendering="geometricPrecision" fill="#9400D3" fill-opacity=".5" color="#000"><path d="M184 476.5h42.2v-9H184zM558.1 436h57v-4.3h-57zM53.9 436h21.8V93.2H53.9z"/><path d="M75.6 436H136v-12.6H75.6zM256.5 436H317v-8.5h-60.5z"/><path d="M316.9 436h60.4v-12.6h-60.4zM135.9 436h60.4v-29.4h-60.4z"/><path d="M196.2 436h60.4v-8.5h-60.4z"/></g><text transform="translate(375.6 475.9)" stroke="none" fill="#000" font-family="Arial" font-size="12" text-anchor="end" color="#000"><tspan>score p10=2336</tspan></text><path stroke="#009E73" d="M383.9 472h42.2m102.3-36V415.1" fill="none" color="#000"/><text transform="translate(575.5 475.9)" stroke="none" fill="#000" font-family="Arial" font-size="12" text-anchor="end" color="#000"><tspan>score median=4000</tspan></text><path stroke="#56B4E9" d="M583.8 472H626" fill="none" color="#000"/><g fill="none" color="#000" stroke="currentColor"><path stroke="#000" d="M53.9 18.1V436H615V18.1H53.9z"/></g></svg>

<?xml version="1.0" encoding="utf-8"  standalone="no"?>
<svg 
 width="640" height="490"
 viewBox="0 0 640 490"
 xmlns="http://www.w3.org/2000/svg"
 xmlns:xlink="http://www.w3.org/1999/xlink"
>

<title>Gnuplot</title>
<desc>Produced by GNUPLOT 5.4 patchlevel 0 </desc>

<g id="gnuplot_canvas">

<rect x="0" y="0" width="640" height="490" fill="#ffffff"/>
<defs>

	<circle id='gpDot' r='0.5' stroke-width='0.5' stroke='currentColor'/>
	<path id='gpPt0' stroke-width='0.222' stroke='currentColor' d='M-1,0 h2 M0,-1 v2'/>
	<path id='gpPt1' stroke-width='0.222' stroke='currentColor' d='M-1,-1 L1,1 M1,-1 L-1,1'/>
	<path id='gpPt2' stroke-width='0.222' stroke='currentColor' d='M-1,0 L1,0 M0,-1 L0,1 M-1,-1 L1,1 M-1,1 L1,-1'/>
	<rect id='gpPt3' stroke-width='0.222' stroke='currentColor' x='-1' y='-1' width='2' height='2'/>
	<rect id='gpPt4' stroke-width='0.222' stroke='currentColor' fill='currentColor' x='-1' y='-1' width='2' height='2'/>
	<circle id='gpPt5' stroke-width='0.222' stroke='currentColor' cx='0' cy='0' r='1'/>
	<use xlink:href='#gpPt5' id='gpPt6' fill='currentColor' stroke='none'/>
	<path id='gpPt7' stroke-width='0.222' stroke='currentColor' d='M0,-1.33 L-1.33,0.67 L1.33,0.67 z'/>
	<use xlink:href='#gpPt7' id='gpPt8' fill='currentColor' stroke='none'/>
	<use xlink:href='#gpPt7' id='gpPt9' stroke='currentColor' transform='rotate(180)'/>
	<use xlink:href='#gpPt9' id='gpPt10' fill='currentColor' stroke='none'/>
	<use xlink:href='#gpPt3' id='gpPt11' stroke='currentColor' transform='rotate(45)'/>
	<use xlink:href='#gpPt11' id='gpPt12' fill='currentColor' stroke='none'/>
	<path id='gpPt13' stroke-width='0.222' stroke='currentColor' d='M0,1.330 L1.265,0.411 L0.782,-1.067 L-0.782,-1.076 L-1.265,0.411 z'/>
	<use xlink:href='#gpPt13' id='gpPt14' fill='currentColor' stroke='none'/>
	<filter id='textbox' filterUnits='objectBoundingBox' x='0' y='0' height='1' width='1'>
	  <feFlood flood-color='#FFFFFF' flood-opacity='1' result='bgnd'/>
	  <feComposite in='SourceGraphic' in2='bgnd' operator='atop'/>
	</filter>
	<filter id='greybox' filterUnits='objectBoundingBox' x='0' y='0' height='1' width='1'>
	  <feFlood flood-color='lightgrey' flood-opacity='1' result='grey'/>
	  <feComposite in='SourceGraphic' in2='grey' operator='atop'/>
	</filter>
</defs>
<g fill="none" color="#FFFFFF" stroke="black" stroke-width="1.00" stroke-linecap="butt" stroke-linejoin="miter">
</g>
<g fill="none" color="black" stroke="currentColor" stroke-width="1.00" stroke-linecap="butt" stroke-linejoin="miter">
	<path stroke='black'  d='M53.9,436.0 L62.9,436.0 M615.0,436.0 L606.0,436.0  '/>	<g transform="translate(45.6,439.9)" stroke="none" fill="black" font-family="Arial" font-size="12.00"  text-anchor="end">
		<text><tspan font-family="Arial" > 0</tspan></text>
	</g>
</g>
<g fill="none" color="black" stroke="currentColor" stroke-width="1.00" stroke-linecap="butt" stroke-linejoin="miter">
	<path stroke='black'  d='M53.9,352.4 L62.9,352.4 M615.0,352.4 L606.0,352.4  '/>	<g transform="translate(45.6,356.3)" stroke="none" fill="black" font-family="Arial" font-size="12.00"  text-anchor="end">
		<text><tspan font-family="Arial" > 20</tspan></text>
	</g>
</g>
<g fill="none" color="black" stroke="currentColor" stroke-width="1.00" stroke-linecap="butt" stroke-linejoin="miter">
	<path stroke='black'  d='M53.9,268.8 L62.9,268.8 M615.0,268.8 L606.0,268.8  '/>	<g transform="translate(45.6,272.7)" stroke="none" fill="black" font-family="Arial" font-size="12.00"  text-anchor="end">
		<text><tspan font-family="Arial" > 40</tspan></text>
	</g>
</g>
<g fill="none" color="black" stroke="currentColor" stroke-width="1.00" stroke-linecap="butt" stroke-linejoin="miter">
	<path stroke='black'  d='M53.9,185.3 L62.9,185.3 M615.0,185.3 L606.0,185.3  '/>	<g transform="translate(45.6,189.2)" stroke="none" fill="black" font-family="Arial" font-size="12.00"  text-anchor="end">
		<text><tspan font-family="Arial" > 60</tspan></text>
	</g>
</g>
<g fill="none" color="black" stroke="currentColor" stroke-width="1.00" stroke-linecap="butt" stroke-linejoin="miter">
	<path stroke='black'  d='M53.9,101.7 L62.9,101.7 M615.0,101.7 L606.0,101.7  '/>	<g transform="translate(45.6,105.6)" stroke="none" fill="black" font-family="Arial" font-size="12.00"  text-anchor="end">
		<text><tspan font-family="Arial" > 80</tspan></text>
	</g>
</g>
<g fill="none" color="black" stroke="currentColor" stroke-width="1.00" stroke-linecap="butt" stroke-linejoin="miter">
	<path stroke='black'  d='M53.9,18.1 L62.9,18.1 M615.0,18.1 L606.0,18.1  '/>	<g transform="translate(45.6,22.0)" stroke="none" fill="black" font-family="Arial" font-size="12.00"  text-anchor="end">
		<text><tspan font-family="Arial" > 100</tspan></text>
	</g>
</g>
<g fill="none" color="black" stroke="currentColor" stroke-width="1.00" stroke-linecap="butt" stroke-linejoin="miter">
	<path stroke='black'  d='M60.0,436.0 L60.0,427.0 M60.0,18.1 L60.0,27.1  '/>	<g transform="translate(60.0,457.9)" stroke="none" fill="black" font-family="Arial" font-size="12.00"  text-anchor="middle">
		<text><tspan font-family="Arial" > 1950</tspan></text>
	</g>
</g>
<g fill="none" color="black" stroke="currentColor" stroke-width="1.00" stroke-linecap="butt" stroke-linejoin="miter">
	<path stroke='black'  d='M120.6,436.0 L120.6,427.0 M120.6,18.1 L120.6,27.1  '/>	<g transform="translate(120.6,457.9)" stroke="none" fill="black" font-family="Arial" font-size="12.00"  text-anchor="middle">
		<text><tspan font-family="Arial" > 2000</tspan></text>
	</g>
</g>
<g fill="none" color="black" stroke="currentColor" stroke-width="1.00" stroke-linecap="butt" stroke-linejoin="miter">
	<path stroke='black'  d='M181.3,436.0 L181.3,427.0 M181.3,18.1 L181.3,27.1  '/>	<g transform="translate(181.3,457.9)" stroke="none" fill="black" font-family="Arial" font-size="12.00"  text-anchor="middle">
		<text><tspan font-family="Arial" > 2050</tspan></text>
	</g>
</g>
<g fill="none" color="black" stroke="currentColor" stroke-width="1.00" stroke-linecap="butt" stroke-linejoin="miter">
	<path stroke='black'  d='M242.0,436.0 L242.0,427.0 M242.0,18.1 L242.0,27.1  '/>	<g transform="translate(242.0,457.9)" stroke="none" fill="black" font-family="Arial" font-size="12.00"  text-anchor="middle">
		<text><tspan font-family="Arial" > 2100</tspan></text>
	</g>
</g>
<g fill="none" color="black" stroke="currentColor" stroke-width="1.00" stroke-linecap="butt" stroke-linejoin="miter">
	<path stroke='black'  d='M302.7,436.0 L302.7,427.0 M302.7,18.1 L302.7,27.1  '/>	<g transform="translate(302.7,457.9)" stroke="none" fill="black" font-family="Arial" font-size="12.00"  text-anchor="middle">
		<text><tspan font-family="Arial" > 2150</tspan></text>
	</g>
</g>
<g fill="none" color="black" stroke="currentColor" stroke-width="1.00" stroke-linecap="butt" stroke-linejoin="miter">
	<path stroke='black'  d='M363.4,436.0 L363.4,427.0 M363.4,18.1 L363.4,27.1  '/>	<g transform="translate(363.4,457.9)" stroke="none" fill="black" font-family="Arial" font-size="12.00"  text-anchor="middle">
		<text><tspan font-family="Arial" > 2200</tspan></text>
	</g>
</g>
<g fill="none" color="black" stroke="currentColor" stroke-width="1.00" stroke-linecap="butt" stroke-linejoin="miter">
	<path stroke='black'  d='M424.0,436.0 L424.0,427.0 M424.0,18.1 L424.0,27.1  '/>	<g transform="translate(424.0,457.9)" stroke="none" fill="black" font-family="Arial" font-size="12.00"  text-anchor="middle">
		<text><tspan font-family="Arial" > 2250</tspan></text>
	</g>
</g>
<g fill="none" color="black" stroke="currentColor" stroke-width="1.00" stroke-linecap="butt" stroke-linejoin="miter">
	<path stroke='black'  d='M484.7,436.0 L484.7,427.0 M484.7,18.1 L484.7,27.1  '/>	<g transform="translate(484.7,457.9)" stroke="none" fill="black" font-family="Arial" font-size="12.00"  text-anchor="middle">
		<text><tspan font-family="Arial" > 2300</tspan></text>
	</g>
</g>
<g fill="none" color="black" stroke="currentColor" stroke-width="1.00" stroke-linecap="butt" stroke-linejoin="miter">
	<path stroke='black'  d='M545.4,436.0 L545.4,427.0 M545.4,18.1 L545.4,27.1  '/>	<g transform="translate(545.4,457.9)" stroke="none" fill="black" font-family="Arial" font-size="12.00"  text-anchor="middle">
		<text><tspan font-family="Arial" > 2350</tspan></text>
	</g>
</g>
<g fill="none" color="black" stroke="currentColor" stroke-width="1.00" stroke-linecap="butt" stroke-linejoin="miter">
	<path stroke='black'  d='M606.1,436.0 L606.1,427.0 M606.1,18.1 L606.1,27.1  '/>	<g transform="translate(606.1,457.9)" stroke="none" fill="black" font-family="Arial" font-size="12.00"  text-anchor="middle">
		<text><tspan font-family="Arial" > 2400</tspan></text>
	</g>
</g>
<g fill="none" color="black" stroke="currentColor" stroke-width="1.00" stroke-linecap="butt" stroke-linejoin="miter">
</g>
<g fill="none" color="black" stroke="currentColor" stroke-width="1.00" stroke-linecap="butt" stroke-linejoin="miter">
	<path stroke='black'  d='M53.9,18.1 L53.9,436.0 L615.0,436.0 L615.0,18.1 L53.9,18.1 Z  '/></g>
<g fill="none" color="black" stroke="currentColor" stroke-width="1.00" stroke-linecap="butt" stroke-linejoin="miter">
</g>
	<g id="gnuplot_plot_1" ><title>raw</title>
<g fill="none" color="black" stroke="currentColor" stroke-width="1.00" stroke-linecap="butt" stroke-linejoin="miter">
	<g transform="translate(175.7,475.9)" stroke="none" fill="black" font-family="Arial" font-size="12.00"  text-anchor="end">
		<text><tspan font-family="Arial" >raw</tspan></text>
	</g>
</g>
<g fill="none" color="black" stroke="currentColor" stroke-width="1.00" stroke-linecap="butt" stroke-linejoin="miter">
	<g stroke='none' shape-rendering='geometricPrecision'>
		<polygon fill = 'rgb(148,   0, 211)' fill-opacity = '0.500000' points = '184.0,476.5 226.2,476.5 226.2,467.5 184.0,467.5 '/>
		<polygon fill = 'rgb(148,   0, 211)' fill-opacity = '0.500000' points = '558.1,436.0 615.1,436.0 615.1,431.7 558.1,431.7 '/>
		<polygon fill = 'rgb(148,   0, 211)' fill-opacity = '0.500000' points = '53.9,436.0 75.7,436.0 75.7,93.2 53.9,93.2 '/>
		<polygon fill = 'rgb(148,   0, 211)' fill-opacity = '0.500000' points = '75.6,436.0 136.0,436.0 136.0,423.4 75.6,423.4 '/>
		<polygon fill = 'rgb(148,   0, 211)' fill-opacity = '0.500000' points = '256.5,436.0 317.0,436.0 317.0,427.5 256.5,427.5 '/>
		<polygon fill = 'rgb(148,   0, 211)' fill-opacity = '0.500000' points = '316.9,436.0 377.3,436.0 377.3,423.4 316.9,423.4 '/>
		<polygon fill = 'rgb(148,   0, 211)' fill-opacity = '0.500000' points = '135.9,436.0 196.3,436.0 196.3,406.6 135.9,406.6 '/>
		<polygon fill = 'rgb(148,   0, 211)' fill-opacity = '0.500000' points = '196.2,436.0 256.6,436.0 256.6,427.5 196.2,427.5 '/>
	</g>
</g>
	</g>
	<g id="gnuplot_plot_2" ><title>score p10=2336</title>
<g fill="none" color="black" stroke="currentColor" stroke-width="1.00" stroke-linecap="butt" stroke-linejoin="miter">
	<g transform="translate(375.6,475.9)" stroke="none" fill="black" font-family="Arial" font-size="12.00"  text-anchor="end">
		<text><tspan font-family="Arial" >score p10=2336</tspan></text>
	</g>
</g>
<g fill="none" color="black" stroke="currentColor" stroke-width="1.00" stroke-linecap="butt" stroke-linejoin="miter">
	<path stroke='rgb(  0, 158, 115)'  d='M383.9,472.0 L426.1,472.0 M528.4,436.0 L528.4,435.8 L528.4,435.4 L528.4,434.9 L528.4,434.5 L528.4,434.1
		L528.4,433.7 L528.4,433.3 L528.4,432.8 L528.4,432.4 L528.4,432.0 L528.4,431.6 L528.4,431.1 L528.4,430.7
		L528.4,430.3 L528.4,429.9 L528.4,429.5 L528.4,429.0 L528.4,428.6 L528.4,428.2 L528.4,427.8 L528.4,427.3
		L528.4,426.9 L528.4,426.5 L528.4,426.1 L528.4,425.7 L528.4,425.2 L528.4,424.8 L528.4,424.4 L528.4,424.0
		L528.4,423.5 L528.4,423.1 L528.4,422.7 L528.4,422.3 L528.4,421.9 L528.4,421.4 L528.4,421.0 L528.4,420.6
		L528.4,420.2 L528.4,419.7 L528.4,419.3 L528.4,418.9 L528.4,418.5 L528.4,418.1 L528.4,417.6 L528.4,417.2
		L528.4,416.8 L528.4,416.4 L528.4,415.9 L528.4,415.5 L528.4,415.1  '/></g>
	</g>
	<g id="gnuplot_plot_3" ><title>score median=4000</title>
<g fill="none" color="black" stroke="currentColor" stroke-width="1.00" stroke-linecap="butt" stroke-linejoin="miter">
	<g transform="translate(575.5,475.9)" stroke="none" fill="black" font-family="Arial" font-size="12.00"  text-anchor="end">
		<text><tspan font-family="Arial" >score median=4000</tspan></text>
	</g>
</g>
<g fill="none" color="black" stroke="currentColor" stroke-width="1.00" stroke-linecap="butt" stroke-linejoin="miter">
	<path stroke='rgb( 86, 180, 233)'  d='M583.8,472.0 L626.0,472.0  '/></g>
	</g>
<g fill="none" color="#FFFFFF" stroke="rgb( 86, 180, 233)" stroke-width="2.00" stroke-linecap="butt" stroke-linejoin="miter">
</g>
<g fill="none" color="black" stroke="currentColor" stroke-width="2.00" stroke-linecap="butt" stroke-linejoin="miter">
</g>
<g fill="none" color="black" stroke="black" stroke-width="1.00" stroke-linecap="butt" stroke-linejoin="miter">
</g>
<g fill="none" color="black" stroke="currentColor" stroke-width="1.00" stroke-linecap="butt" stroke-linejoin="miter">
	<path stroke='black'  d='M53.9,18.1 L53.9,436.0 L615.0,436.0 L615.0,18.1 L53.9,18.1 Z  '/></g>
<g fill="none" color="black" stroke="currentColor" stroke-width="1.00" stroke-linecap="butt" stroke-linejoin="miter">
</g>
</g>
</svg>
